src/components/Icon/utils/svgsOptimized/arrow-line-left.svg

<?xml version="1.0" encoding="utf-8"?><svg width="24" height="24" xmlns="http://www.w3.org/2000/svg" viewBox="0 0 24 24"><path d="M7.2 6.3v11.4a.3.3 0 0 1-.3.3h-.6a.3.3 0 0 1-.3-.3V6.3a.3.3 0 0 1 .3-.3h.6a.3.3 0 0 1 .3.3Zm1.95 5.29c-.09.11-.15.25-.15.41h-.01c0 .15.06.29.15.4l2.75 3.37c.22.26.62.29.88.07.26-.22.3-.62.07-.88l-1.86-2.34h6.39c.35 0 .63-.27.63-.62s-.27-.63-.62-.63h-6.39l1.86-2.34a.63.63 0 0 0-.07-.88.63.63 0 0 0-.88.07l-2.75 3.37Z"/></svg>

<svg width="24" height="24" viewBox="0 0 24 24"  xmlns="http://www.w3.org/2000/svg">
<path d="M7.2 6.3V17.7C7.2 17.8657 7.06569 18 6.9 18H6.3C6.13431 18 6 17.8657 6 17.7V6.3C6 6.13431 6.13431 6 6.3 6H6.9C7.06569 6 7.2 6.13431 7.2 6.3Z" />
<path d="M9.15 11.59C9.06 11.7 9 11.84 9 12H8.99C8.99 12.15 9.05 12.29 9.14 12.4L11.89 15.77C12.11 16.03 12.51 16.06 12.77 15.84C13.03 15.62 13.07 15.22 12.84 14.96L10.98 12.62H17.37C17.72 12.62 18 12.35 18 12C18 11.65 17.73 11.37 17.38 11.37H10.99L12.85 9.03C13.07 8.77 13.04 8.38 12.78 8.15C12.52 7.93 12.12 7.96 11.9 8.22L9.15 11.59Z" />
</svg>
